contributed-vectors/nekogram.svg

<?xml version="1.0" encoding="UTF-8" standalone="no"?>
<svg
   sodipodi:docname="nekogram.svg"
   inkscape:version="1.2 (dc2aedaf03, 2022-05-15)"
   version="1.1"
   id="svg2"
   viewBox="0 0 192 192"
   height="192"
   width="192"
   inkscape:export-filename="nekogram.png"
   inkscape:export-xdpi="96"
   inkscape:export-ydpi="96"
   xmlns:inkscape="http://www.inkscape.org/namespaces/inkscape"
   xmlns:sodipodi="http://sodipodi.sourceforge.net/DTD/sodipodi-0.dtd"
   xmlns="http://www.w3.org/2000/svg"
   xmlns:svg="http://www.w3.org/2000/svg"
   xmlns:rdf="http://www.w3.org/1999/02/22-rdf-syntax-ns#"
   xmlns:cc="http://creativecommons.org/ns#"
   xmlns:dc="http://purl.org/dc/elements/1.1/">
  <sodipodi:namedview
     inkscape:document-rotation="0"
     inkscape:window-maximized="1"
     inkscape:window-y="0"
     inkscape:window-x="36"
     inkscape:window-height="1052"
     inkscape:window-width="1884"
     units="px"
     showgrid="false"
     inkscape:current-layer="layer1"
     inkscape:document-units="px"
     inkscape:cy="295.99999"
     inkscape:cx="-228.99999"
     inkscape:zoom="0.50000001"
     inkscape:pageshadow="2"
     inkscape:pageopacity="0.0"
     borderopacity="1.0"
     bordercolor="#666666"
     pagecolor="#ffffff"
     id="base"
     inkscape:snap-bbox="false"
     inkscape:object-paths="true"
     inkscape:snap-nodes="true"
     showguides="true"
     inkscape:guide-bbox="true"
     inkscape:snap-object-midpoints="true"
     inkscape:snap-center="true"
     inkscape:snap-global="false"
     inkscape:snap-intersection-paths="true"
     inkscape:snap-smooth-nodes="true"
     inkscape:snap-midpoints="true"
     inkscape:showpageshadow="0"
     inkscape:pagecheckerboard="0"
     inkscape:deskcolor="#d1d1d1" />
  <defs
     id="defs4" />
  <metadata
     id="metadata7">
    <rdf:RDF>
      <cc:Work
         rdf:about="">
        <dc:format>image/svg+xml</dc:format>
        <dc:type
           rdf:resource="http://purl.org/dc/dcmitype/StillImage" />
        <dc:title />
      </cc:Work>
    </rdf:RDF>
  </metadata>
  <g
     transform="translate(0,-860.36216)"
     id="layer1"
     inkscape:groupmode="layer"
     inkscape:label="Calque 1">
    <g
       id="g954"
       transform="matrix(0.0301918,0,0,-0.0301918,302.00072,810.36312)" />
    <g
       id="g958"
       transform="matrix(0.02593972,0,0,-0.02593972,302.00072,810.36312)" />
    <g
       id="g962"
       transform="matrix(0.0301918,0,0,-0.0301918,302.00072,810.36312)" />
    <g
       id="g966"
       transform="matrix(0.02730886,0,0,-0.02730886,302.00072,810.36312)" />
    <g
       id="g970"
       transform="matrix(0.02410693,0,0,-0.02410693,262.00072,918.36312)" />
    <g
       id="g974"
       transform="matrix(0.0283067,0,0,-0.0283067,302.00072,810.36312)" />
    <rect
       style="opacity:1;fill:#ffffff;fill-opacity:1;fill-rule:evenodd;stroke:none;stroke-width:0.993464;stroke-opacity:1"
       width="152"
       height="152"
       x="20"
       y="880.36218"
       rx="9.9346409"
       id="rect927"
       ry="9.9346409" />
    <rect
       style="opacity:1;fill:#99bdfe;fill-opacity:0.5;fill-rule:evenodd;stroke:none;stroke-width:0.993464;stroke-opacity:1"
       width="152"
       height="152"
       x="20"
       y="880.36218"
       rx="9.9346409"
       id="rect932"
       ry="9.9346409" />
    <path
       id="path1031"
       style="fill:#ffffff;fill-opacity:1;stroke:none;stroke-width:0.915421px;stroke-linecap:butt;stroke-linejoin:miter;stroke-opacity:1"
       d="M 138.42383 57.720703 L 138.42383 57.722656 C 134.54919 57.702456 134.44336 61.181541 134.44336 62.650391 C 134.44336 75.791501 139.91992 98.09375 139.91992 98.09375 C 123.73741 105.05223 111.84375 116.86523 111.84375 116.86523 C 100.11443 109.51667 86.026824 103.23403 82.330078 101.70312 C 77.270912 99.608055 75.565393 101.85264 75.431641 103.91797 C 72.491025 149.3245 81.802675 148.82647 83.496094 162.51367 C 83.965567 166.30823 84.42523 169.3737 84.863281 172 L 162.06445 172 C 167.56824 172 172 167.56825 172 162.06445 L 172 74.541016 C 168.91759 72.083862 165.10893 69.029261 161.54883 66.724609 C 155.11235 62.557909 146.07096 59.255538 140.32617 57.960938 C 139.60807 57.799107 138.97735 57.723593 138.42383 57.720703 z M 155.05469 111.02148 A 8.2506886 7.0415359 58.520212 0 1 162.06641 115.2832 A 8.2506886 7.0415359 58.520212 0 1 160.36914 125.99609 A 8.2506886 7.0415359 58.520212 0 1 150.05664 122.63672 A 8.2506886 7.0415359 58.520212 0 1 151.75195 111.92383 A 8.2506886 7.0415359 58.520212 0 1 155.05469 111.02148 z M 112.21484 144.00195 A 9.2597275 7.902699 58.520212 0 1 120.07227 148.78516 A 9.2597275 7.902699 58.520212 0 1 118.16797 160.80859 A 9.2597275 7.902699 58.520212 0 1 106.5918 157.03906 A 9.2597275 7.902699 58.520212 0 1 108.49609 145.01562 A 9.2597275 7.902699 58.520212 0 1 112.21484 144.00195 z "
       transform="translate(0,860.36216)" />
  </g>
  <style
     type="text/css"
     id="style853">
	.st0{fill:#FFFFFF;}
</style>
  <style
     type="text/css"
     id="style853-9">
	.st0{fill:#FFFFFF;}
</style>
  <style
     type="text/css"
     id="style853-3">
	.st0{fill:#FFFFFF;}
</style>
</svg>

<svg xmlns="http://www.w3.org/2000/svg" id="svg2" width="192" height="192" version="1.1"><g id="layer1" transform="translate(0 -860.362)"><rect id="rect927" width="152" height="152" x="20" y="880.362" rx="9.935" ry="9.935" style="opacity:1;fill:#fff;fill-opacity:1;fill-rule:evenodd;stroke:none;stroke-width:.993464;stroke-opacity:1"/><rect id="rect932" width="152" height="152" x="20" y="880.362" rx="9.935" ry="9.935" style="opacity:1;fill:#99bdfe;fill-opacity:.5;fill-rule:evenodd;stroke:none;stroke-width:.993464;stroke-opacity:1"/><path id="path1031" d="M138.424 57.72v.003c-3.875-.02-3.98 3.459-3.98 4.927 0 13.142 5.476 35.444 5.476 35.444-16.183 6.958-28.076 18.771-28.076 18.771-11.73-7.348-25.817-13.631-29.514-15.162-5.06-2.095-6.765.15-6.898 2.215-2.941 45.406 6.37 44.908 8.064 58.596.47 3.794.93 6.86 1.367 9.486h77.201a9.914 9.914 0 0 0 9.936-9.936V74.541c-3.082-2.457-6.891-5.512-10.451-7.816-6.437-4.167-15.478-7.47-21.223-8.764a8.921 8.921 0 0 0-1.902-.24zm16.63 53.301a8.25 7.042 58.52 0 1 7.012 4.262 8.25 7.042 58.52 0 1-1.697 10.713 8.25 7.042 58.52 0 1-10.312-3.36 8.25 7.042 58.52 0 1 1.695-10.712 8.25 7.042 58.52 0 1 3.303-.903zm-42.84 32.98a9.26 7.903 58.52 0 1 7.858 4.784 9.26 7.903 58.52 0 1-1.904 12.024 9.26 7.903 58.52 0 1-11.576-3.77 9.26 7.903 58.52 0 1 1.904-12.023 9.26 7.903 58.52 0 1 3.719-1.014z" style="fill:#fff;fill-opacity:1;stroke:none;stroke-width:.915421px;stroke-linecap:butt;stroke-linejoin:miter;stroke-opacity:1" transform="translate(0 860.362)"/></g><style id="style853" type="text/css">.st0{fill:#fff}</style></svg>
